X: 1
T: Ring Out Wild Bells
C: Crawford Gates
Z: DW
M: 6/8
L: 1/8
K: Dm
   D | "Dm"DEF A2A | "Gm"BAG "Dm"A2A | "Gm"GAB "Dm"AF>F | "A"GFE "Dm"F2 ||
|: F | "Bb"d2d "F"cF2 | "Gm"B2B "A"A2A | "Gm"E>FG "Dm"FD>D | "A"ED^C "Dm"D2 :|
